X:1
T:Title
%%score 1 { ( 2 4 6 ) | ( 3 5 ) }
L:1/8
M:6/8
K:F
V:1 treble nm="Akkordion"
V:2 treble nm="Grand Piano"
V:4 treble 
V:6 treble 
V:3 bass 
V:5 bass 
V:1
 z3 z2[Q:1/4=78] c | cAc cAc | BAG A2 A | BdB AcF | G3- GGG | AGF BAG | cBA GFD | CDF A2 G | %8
[M:5/8] F- F3 z |[M:1/8] c |[M:3/4] c3 c BG | A c3 z A | A3 A GE | F A3 z A | A3 G AB | cG AF Bd | %16
 c3 A2 G |[M:5/8] F- F3 z |] %18
V:2
 z3 z2 c | [Ac][FA][Ac] [Ac][FA][Ac] | [GB][FA][EG] [FA]2 [FA] | .B3 z3 | .G6 | AGF BAG | cBA GFD | %7
 z3 .[EA]3 |[M:5/8] F- F3 z |[M:1/8] c |[M:3/4] c-[Ec-] [Fc]c BG | z c- c3 z | z2 z2 G2 | %13
 z A- A3 z | [FA]4 z2 | cG A[DF] B[Fd] | z2 z .[EA]3 |[M:5/8] F- F3 z |] %18
V:3
 z3 z2 A | F,A,C F,A,C | C,G,C F,A,C | F,B,[K:treble]D F-[A,F]C | C,G,B, CB,G, | %5
 F-[G,F]A, E-[A,E-][B,E] | .[A,F]3[K:bass] z3 | z B,A, C,D,[E,B,E] |[M:5/8] A,2 B, A, z | %9
[M:1/8] z |[M:3/4] z C DB,, D,E, | C[K:treble][A,F] B,[K:bass]C- [G,C-][A,C] | z ^C DA,, B,,C, | %13
 A,[F,D] G,A,- [E,A,-][F,A,] | C,C, C,[B,,B,] [A,,A,][G,,G,] | .[CF]2 z2 z2 | %16
 C,-[C,-A,] [C,A,]2 CB, |[M:5/8] z A,B, A, z |] %18
V:4
 x6 | x6 | x6 | F-[F-d][FB] AcF | FED z GG | x6 | x6 | CDF C=B,G |[M:5/8] z CD C z |[M:1/8] x | %10
[M:3/4] .E2 z .[CEG]3 | .A2 GA G[FA] | [A,A]-[A,-EA-] [A,FA][GA] z E | .F2 EF E[DA] | CC C[EG] AB | %15
 x6 | [Fc]3 C z [CG] |[M:5/8] A, z z z2 |] %18
V:5
 x6 | x6 | x6 | z3[K:treble] .F,3 | x6 | .[F,C]3 .[G,C]3 | _E-[B,E-][CE][K:bass] [B,D]2 =B, | %7
 C,3 z3 |[M:5/8] F,- F,3 z |[M:1/8] x |[M:3/4] [C,G,]4 z2 | F,3[K:treble][K:bass] F, z2 | A,,4 z2 | %13
 D,3 D, z2 | x6 | [F,,C,A,]3 [B,,F,]2 [=B,,_A,] | .A,2 z C,3 |[M:5/8] F,- F,3 z |] %18
V:6
 x6 | x6 | x6 | x6 | z3 E3 | x6 | x6 | x6 |[M:5/8] x5 |[M:1/8] x |[M:3/4] x6 | x6 | .E2 z .[A,E]3 | %13
 x6 | x6 | x6 | x6 |[M:5/8] x5 |] %18

